images/wish-list.svg

<svg width="30" height="28" viewBox="0 0 30 28" fill="none" xmlns="http://www.w3.org/2000/svg">
<path d="M21.75 0C19.14 0 16.635 1.22616 15 3.16379C13.365 1.22616 10.86 0 8.25 0C3.63 0 0 3.66334 0 8.32576C0 14.0478 5.1 18.7103 12.825 25.7947L15 27.7778L17.175 25.7796C24.9 18.7103 30 14.0478 30 8.32576C30 3.66334 26.37 0 21.75 0ZM15.15 23.5392L15 23.6906L14.85 23.5392C7.71 17.0148 3 12.7006 3 8.32576C3 5.29821 5.25 3.02755 8.25 3.02755C10.56 3.02755 12.81 4.52619 13.605 6.60006H16.41C17.19 4.52619 19.44 3.02755 21.75 3.02755C24.75 3.02755 27 5.29821 27 8.32576C27 12.7006 22.29 17.0148 15.15 23.5392Z" fill="black"/>
</svg>

<svg width="30" height="28" fill="none" xmlns="http://www.w3.org/2000/svg"><path d="M21.75 0C19.14 0 16.635 1.226 15 3.164 13.365 1.226 10.86 0 8.25 0 3.63 0 0 3.663 0 8.326c0 5.722 5.1 10.384 12.825 17.469L15 27.778l2.175-1.998C24.9 18.71 30 14.048 30 8.326 30 3.663 26.37 0 21.75 0Zm-6.6 23.54-.15.15-.15-.15C7.71 17.014 3 12.7 3 8.325c0-3.028 2.25-5.298 5.25-5.298 2.31 0 4.56 1.498 5.355 3.572h2.805c.78-2.074 3.03-3.572 5.34-3.572 3 0 5.25 2.27 5.25 5.298 0 4.375-4.71 8.689-11.85 15.213Z" fill="#000"/></svg>
